assets/img/icons/s-instagram.svg

<svg width="25" height="25" viewBox="0 0 25 25" fill="none" xmlns="http://www.w3.org/2000/svg">
<path fill-rule="evenodd" clip-rule="evenodd" d="M12.5 0C5.59644 0 0 5.59644 0 12.5C0 19.4036 5.59644 25 12.5 25C19.4036 25 25 19.4036 25 12.5C25 5.59644 19.4036 0 12.5 0ZM9.75187 5.87353C10.463 5.84117 10.6902 5.83325 12.5008 5.83325H12.4987C14.3098 5.83325 14.5362 5.84117 15.2473 5.87353C15.9571 5.90603 16.4418 6.01839 16.8668 6.18326C17.3057 6.3534 17.6765 6.58118 18.0474 6.95201C18.4182 7.32257 18.646 7.69452 18.8168 8.133C18.9807 8.55689 19.0932 9.04134 19.1266 9.75107C19.1585 10.4622 19.1668 10.6894 19.1668 12.5C19.1668 14.3106 19.1585 14.5372 19.1266 15.2484C19.0932 15.9578 18.9807 16.4424 18.8168 16.8664C18.646 17.3048 18.4182 17.6767 18.0474 18.0473C17.677 18.4181 17.3056 18.6464 16.8672 18.8167C16.4431 18.9816 15.958 19.0939 15.2483 19.1264C14.5372 19.1588 14.3107 19.1667 12.5 19.1667C10.6895 19.1667 10.4624 19.1588 9.75131 19.1264C9.04172 19.0939 8.55714 18.9816 8.13296 18.8167C7.69477 18.6464 7.32282 18.4181 6.9524 18.0473C6.5817 17.6767 6.35392 17.3048 6.1835 16.8663C6.01878 16.4424 5.90641 15.9579 5.87377 15.2482C5.84155 14.5371 5.8335 14.3106 5.8335 12.5C5.8335 10.6894 5.84183 10.4621 5.87364 9.75093C5.90558 9.04148 6.01808 8.55689 6.18336 8.13286C6.3542 7.69452 6.58198 7.32257 6.95281 6.95201C7.32337 6.58132 7.69532 6.35354 8.1338 6.18326C8.55769 6.01839 9.04214 5.90603 9.75187 5.87353Z" fill="#6FA2A7"/>
<path fill-rule="evenodd" clip-rule="evenodd" d="M11.9029 7.03463C12.019 7.03444 12.144 7.0345 12.2788 7.03456L12.501 7.03463C14.281 7.03463 14.492 7.04101 15.1949 7.07296C15.8449 7.10268 16.1977 7.21129 16.4327 7.30255C16.7438 7.42338 16.9656 7.56783 17.1988 7.80116C17.4321 8.0345 17.5766 8.25672 17.6977 8.56784C17.789 8.80256 17.8977 9.15534 17.9273 9.80535C17.9592 10.5081 17.9662 10.7192 17.9662 12.4984C17.9662 14.2776 17.9592 14.4887 17.9273 15.1915C17.8976 15.8415 17.789 16.1943 17.6977 16.429C17.5769 16.7401 17.4321 16.9617 17.1988 17.1949C16.9655 17.4282 16.7439 17.5727 16.4327 17.6935C16.198 17.7852 15.8449 17.8935 15.1949 17.9232C14.4921 17.9552 14.281 17.9621 12.501 17.9621C10.7208 17.9621 10.5098 17.9552 9.80706 17.9232C9.15706 17.8932 8.80427 17.7846 8.56913 17.6933C8.25802 17.5725 8.03579 17.4281 7.80246 17.1947C7.56912 16.9614 7.42468 16.7397 7.30356 16.4285C7.21231 16.1937 7.10356 15.841 7.07398 15.191C7.04203 14.4882 7.03564 14.2771 7.03564 12.4968C7.03564 10.7165 7.04203 10.5065 7.07398 9.80368C7.1037 9.15368 7.21231 8.80089 7.30356 8.56589C7.4244 8.25478 7.56912 8.03255 7.80246 7.79922C8.03579 7.56588 8.25802 7.42144 8.56913 7.30032C8.80414 7.20866 9.15706 7.10032 9.80706 7.07046C10.4221 7.04268 10.6604 7.03435 11.9029 7.03296V7.03463ZM16.0598 8.14164C15.6181 8.14164 15.2598 8.49956 15.2598 8.94137C15.2598 9.38304 15.6181 9.74137 16.0598 9.74137C16.5014 9.74137 16.8598 9.38304 16.8598 8.94137C16.8598 8.49969 16.5014 8.14136 16.0598 8.14136V8.14164ZM9.07715 12.5001C9.07715 10.6094 10.61 9.07649 12.5007 9.07642C14.3914 9.07642 15.9239 10.6093 15.9239 12.5001C15.9239 14.3908 14.3915 15.923 12.5008 15.923C10.6101 15.923 9.07715 14.3908 9.07715 12.5001Z" fill="#6FA2A7"/>
<path fill-rule="evenodd" clip-rule="evenodd" d="M12.5006 10.2778C13.7278 10.2778 14.7228 11.2727 14.7228 12.5001C14.7228 13.7273 13.7278 14.7223 12.5006 14.7223C11.2732 14.7223 10.2783 13.7273 10.2783 12.5001C10.2783 11.2727 11.2732 10.2778 12.5006 10.2778V10.2778Z" fill="#6FA2A7"/>
</svg>

<svg width="25" height="25" fill="none" xmlns="http://www.w3.org/2000/svg"><path fill-rule="evenodd" clip-rule="evenodd" d="M12.5 0C5.596 0 0 5.596 0 12.5S5.596 25 12.5 25 25 19.404 25 12.5 19.404 0 12.5 0ZM9.752 5.874c.711-.033.938-.04 2.749-.04h-.002c1.81 0 2.037.007 2.748.04.71.032 1.195.144 1.62.31.439.17.81.397 1.18.768.371.37.599.743.77 1.181.164.424.276.908.31 1.618.032.711.04.938.04 2.749 0 1.81-.009 2.037-.04 2.748-.034.71-.146 1.194-.31 1.618-.171.439-.399.81-.77 1.181-.37.371-.741.6-1.18.77-.424.165-.909.277-1.619.31-.71.032-.937.04-2.748.04-1.81 0-2.038-.008-2.749-.04-.71-.033-1.194-.145-1.618-.31a3.265 3.265 0 0 1-1.18-.77 3.267 3.267 0 0 1-.77-1.18c-.164-.425-.277-.91-.31-1.619-.031-.71-.04-.937-.04-2.748 0-1.81.009-2.038.04-2.75.033-.709.145-1.193.31-1.617.171-.438.399-.81.77-1.181.37-.37.742-.598 1.18-.769.425-.165.91-.277 1.619-.31Z" fill="#6FA2A7"/><path fill-rule="evenodd" clip-rule="evenodd" d="M11.903 7.035h.598c1.78 0 1.991.006 2.694.038.65.03 1.003.138 1.238.23.31.12.533.265.766.498.233.233.378.456.499.767.091.235.2.587.23 1.237.031.703.038.914.038 2.693 0 1.78-.007 1.99-.039 2.694-.03.65-.138 1.002-.23 1.237-.12.311-.265.533-.498.766a2.062 2.062 0 0 1-.766.498c-.235.092-.588.2-1.238.23-.703.032-.914.04-2.694.04-1.78 0-1.991-.008-2.694-.04-.65-.03-1.003-.138-1.238-.23a2.064 2.064 0 0 1-.767-.498 2.066 2.066 0 0 1-.498-.767c-.092-.234-.2-.587-.23-1.237-.032-.703-.038-.914-.038-2.694 0-1.78.006-1.99.038-2.693.03-.65.138-1.003.23-1.238.12-.311.265-.533.498-.767.234-.233.456-.378.767-.499.235-.091.588-.2 1.238-.23.615-.027.853-.036 2.096-.037v.002Zm4.157 1.107a.8.8 0 1 0 0 1.6.8.8 0 0 0 0-1.6ZM9.077 12.5a3.424 3.424 0 1 1 6.848 0 3.424 3.424 0 0 1-6.848 0Z" fill="#6FA2A7"/><path fill-rule="evenodd" clip-rule="evenodd" d="M12.5 10.278a2.222 2.222 0 1 1 0 4.444 2.222 2.222 0 0 1 0-4.444Z" fill="#6FA2A7"/></svg>
